images/icons/vk.svg

<svg width="48" height="41" viewBox="0 0 48 41" fill="none" xmlns="http://www.w3.org/2000/svg">
<path fill-rule="evenodd" clip-rule="evenodd" d="M35.1164 14.8044C35.2824 14.2584 35.1164 13.8564 34.3214 13.8564H31.6964C31.0284 13.8564 30.7204 14.2034 30.5534 14.5864C30.5534 14.5864 29.2184 17.7824 27.3274 19.8584C26.7154 20.4604 26.4374 20.6514 26.1034 20.6514C25.9364 20.6514 25.6854 20.4604 25.6854 19.9134V14.8044C25.6854 14.1484 25.5014 13.8564 24.9454 13.8564H20.8174C20.4004 13.8564 20.1494 14.1604 20.1494 14.4494C20.1494 15.0704 21.0954 15.2144 21.1924 16.9624V20.7604C21.1924 21.5934 21.0394 21.7444 20.7054 21.7444C19.8154 21.7444 17.6504 18.5334 16.3654 14.8594C16.1164 14.1444 15.8644 13.8564 15.1934 13.8564H12.5664C11.8164 13.8564 11.6664 14.2034 11.6664 14.5864C11.6664 15.2684 12.5564 18.6564 15.8114 23.1374C17.9814 26.1974 21.0364 27.8564 23.8194 27.8564C25.4884 27.8564 25.6944 27.4884 25.6944 26.8534V24.5404C25.6944 23.8034 25.8524 23.6564 26.3814 23.6564C26.7714 23.6564 27.4384 23.8484 28.9964 25.3234C30.7764 27.0724 31.0694 27.8564 32.0714 27.8564H34.6964C35.4464 27.8564 35.8224 27.4884 35.6064 26.7604C35.3684 26.0364 34.5184 24.9854 33.3914 23.7384C32.7794 23.0284 31.8614 22.2634 31.5824 21.8804C31.1934 21.3894 31.3044 21.1704 31.5824 20.7334C31.5824 20.7334 34.7824 16.3074 35.1154 14.8044H35.1164Z" fill="#83B3D3"/>
</svg>

<svg width="48" height="41" fill="none" xmlns="http://www.w3.org/2000/svg"><path fill-rule="evenodd" clip-rule="evenodd" d="M35.12 14.8c.16-.54 0-.94-.8-.94H31.7c-.67 0-.98.34-1.15.73 0 0-1.33 3.2-3.22 5.27-.61.6-.9.8-1.23.8-.16 0-.41-.2-.41-.75v-5.1c0-.66-.19-.95-.74-.95h-4.13c-.42 0-.67.3-.67.59 0 .62.95.76 1.04 2.51v3.8c0 .83-.15.98-.48.98-.9 0-3.06-3.2-4.34-6.88-.25-.72-.5-1-1.18-1h-2.62c-.75 0-.9.34-.9.73 0 .68.89 4.07 4.14 8.55 2.17 3.06 5.23 4.72 8 4.72 1.68 0 1.88-.37 1.88-1v-2.32c0-.74.16-.88.7-.88.38 0 1.05.19 2.6 1.66 1.79 1.75 2.08 2.54 3.08 2.54h2.63c.75 0 1.12-.37.9-1.1-.23-.72-1.08-1.77-2.2-3.02-.62-.71-1.54-1.48-1.82-1.86-.39-.5-.28-.71 0-1.15 0 0 3.2-4.42 3.54-5.93Z" fill="#83B3D3"/></svg>
